X: 1
T: the Piper o' Dundee
R: jig
Z: John Chambers <jc:trillian.mit.edu>
M: 6/8
L: 1/8
K: Am
E |\
"Am"A2B c2A | E3 E2^F |  "G"G2A B2c | d2B G2B |\
"Am"A2B c2A | E3 e2f  | "E7"e2d c2B | A3- A2 :|
 B |\
"C"c3 c2e | "G"d3 d2e | "C"c3  c2e | "G"d2B G2B |\
"C"c3 c2e |"Dm"d3 d2f |"E7"e2d c2B | "Am"A3- A2 |]
B |\
"C"c2G c2e | "G"d2G d2e | "C"c2G c2e | "G"d2B G2B |\
"C"c2G c2e |"Dm"d2A d2f |"E7"e2d c2B | "Am"A3- A2 |]
